X: 71
T: Hail Thee, Festival Day
M: 4/4 % time signature
L: 1/4 % default length
%%staves (S1) | (S1V1 S1V2) | (S2V1 S2V2) 
V: S1V1 clef=treble 
%%MIDI beat 127 125 110 1
V: S1V2 
%%MIDI beat 127 125 110 1
V: S2V1 clef=bass 
%%MIDI beat 127 125 110 1
V: S2V2 
%%MIDI beat 127 125 110 1
V:S1 clef=treble
%
K: F % key signature
%
%%MIDI program 1 0 % Piano 1
%%MIDI program 2 0 % Piano 1
%%MIDI program 3 0 % Piano 1
%%MIDI program 4 0 % Piano 1
%
% 1
%
[V: S1] "^Refrain" F c B A/G/ | F3 A | G F/E/ F G/E/ | D2 C2 |
w: Hail thee, fes- ti- val day! blest day to be hal- lowed for ev- er;
%
[V: S1V1] F c B A/G/ | F3 A | G F/E/ F/ G F/ | D2 C2 |
[V: S1V2]  [C A,] [C F] [D F] E | D3 [D | _B,] | C C C2 | C =B, C2 |
[V: S2V1]  F, A,, B,, C/B,/ | A,3 F, | G,2 F, C, | A, (G, G,2) | 
[V: S2V2]  F,, A,, B,, C, | D, E, F, D, | E, C, A,, E,, | F,, G,, [C,2 E,2] |
% 9
[V: S1]  D E/F/ G B | A2 c d/c/ | A2 G3/2 F/ | F4 | 
w: day when our Lord was raised, break- ing the king- dom of death.
w: day when our ri- sen Lord rose in the hea- vens to reign.
w: day when the Ho- ly Ghost shone in the world full of grace.
[V: S1V1]  D E/F/ G B | A2 c d/c/ | A2 G3/2 F/ | F4 | 
[V: S1V2]  D C D2 | [^CG] [DF] [=C F2] D/C/ | [C2 F2] [C E2] B, | [C4A,4] |
[V: S2V1]  F,2 [G,2 B,2] | A,2 F,2 | C,2 C,2 | F,4 | 
[V: S2V2] B,, A,, G,, F,, | [G, E,,] [F, D,,] A,, B,,/A,,/ | C,2 C,,2 | F,,4 | 
% 17
[V: S1]  G G/G/ A G/A/ | B3 (c/c/) | 
w: 1.~All the fair beau- ty of earth, from the
w: 3.~God the Al- might- y the Lord, the_
w: 5.~Spi- rit of life and of pow'r, now_
[V: S1V1]  G G/G/ A G/A/ | B3 (c/c/) | 
[V: S1V2]  D B, D E/^F/ | [G3 D3] [G C] |
[V: S2V1]  (D,4 | D,) G, F, _E, | 
[V: S2V2]  B,, G,, ^F,, D,, | G,, G, F, _E, | 
% 25
[V: S1]  d c/B/ A B/G/ | ^F2 D2 | G2 A G/A/ | 
w: death of the win- ter a- ri- sing! Ev- ery good 
w: Rul-er of earth and the hea- vens, guard us from_
w: flow in us, fount of our be- ing, light that en-
[V: S1V1]  d c/B/ A B/G/ | ^F2 D2 | G2 A G/A/ | 
[V: S1V2]  [D2 G2] _E C | D2 A,2 | D2 D E/^F/ | 
[V: S2V1]  B,, G,, G,2 | A,2 ^F,2 | (D,4 | 
[V: S2V2]  B,, G,, C, _E, | D, =E, D, C, | B,, G,, ^F,, D,, | 
% 34
[V: S1]  B (d/d/) (c A) | B A/A/ G A/F/ | "^Repeat Refrain" c4 | 
w: gift of the year_ now with its Mas- ter re- turns;
w: harm with- out;_ cleanse us from e- vil with- in:
w: ligh- tens us all,_ life that in all may a- bide:
[V: S1V1]  B (d/d/) (c A) | B A/A/ G A/F/ | c4 | 
[V: S1V2]  [G D] E F2 | D2 D2 | [E2 C2] [D F] [E G] |
[V: S2V1]  D,) G, A,2 | G, F, F,2 | C4 | 
[V: S2V2]  G,, B,, A,, D, | G,, A,, B,, =B,, | C, B,, A,, G,, | 
% 34
[V: S1]  (3DDD (3_EDE | F [F B] [F A] G/G/ |
w: 2.~Rise from the grave now, O Lord, the au- thor of
w: 4.~Je- sus the health of the world, en- ligh- ten our
w: 6.~Praise to the gi- ver of good! O lo- ver and
[V: S1V1]  (3DDD (3_EDE | F [F B] [F A] G/G/ |
[V: S1V2]  B,2 B,2 | [C A,] B, (B, [_E B,]) | 
[V: S2V1]  F,2 _E,2 | F,, D,, _E,, G,,| 
[V: S2V2]  B,,2 G,,2 | F,, D,, _E,, G,, | 
% 34
[V: S1]  F3 G/F/ | D2 C2 | (3DDD (3(=EF)G | 
w: life and cre- a- tion. Tread- ing the path- way of
w: minds, great Re- deem- er, Son of the Fa- ther su- 
w: au- thor of con- cord, pour out thy balm on our
[V: S1V1]  F3 G/F/ | D2 C2 | (3DDD (3(=EF)G | 
[V: S1V2]  B, A, B,2 | B,3 A, | B,2 B,2 | 
[V: S2V1]  C, _E, F, B, | (F,2F,2) | F,2 G,2 | 
[V: S2V2]  B,, C, D, E, | F,2 F,,2 | B,,2 G,,2 | 
% 34
[V: S1]  A2 B A/B/ | F2 E3/2 D/ | "^Repeat Refrain"(D2 E2) |]
w: death, new life giv- est to us all:
w: preme, on- ly be- got- ten of God:
w: days; or- der our ways in thy peace:
[V: S1V1]  A2 B A/B/ | F2 E3/2 D/ | (D2 E2) |]
[V: S1V2]  [D2 A,2] [DF] D | D2 ^C3/2 D/ | (A,2 C2) |]
[V: S2V1]  F,2 F, A,/G,/ | F, G, A, G, | (F,2 G,2) |]
[V: S2V2]  D, C, B,, F,,/G,,/ | A,,4 | (D,2 C,2) |]
% 34

